!!!OTL@@DE: Zum letzten Mal
!!!ONB: Mel: "M&uuml;ssts ma mix &uuml;bel aufnehma"
!!!ODT: 1814
!!!OMD: Wiegend
!!!ONB: Volkslied
!!!OCL: Erk, Ludwig
!!!GCO: Deutscher Liederschatz, Band 1
**kern	**kern	**kern
*staff3	*staff2	*staff1
*Ipiano	*Ipiano	*Ivox
*clefF4	*clefG2	*clefG2
*k[f#c#]	*k[f#c#]	*k[f#c#]
*D:	*D:	*D:
*M3/4	*M3/4	*M3/4
*MM108	*MM108	*MM108
8r	8r	8d/
4r	4r	8f#/
.	.	8g/
=1	=1	=1
2DD/ 2D/	(8d/ 8f#/L	4.a/
.	8A/	.
.	8d/ 8f#/	.
.	8A/J)	8dd\
4r	(8a/L	8cc#\
.	8g/J)	8b\
=2	=2	=2
2DD/ 2D/	(8f#/L	8a/L
.	8A/	8d/J
.	8d/ 8f#/	8f#/L
.	8A/J)	8d/J
4r	(8d/ 8f#/L	8.b\
.	8A/J)	.
.	.	16a/
=3	=3	=3
2AAA/ 2AA/	(8c#/ 8e/L	8a/L
.	8A/	8c#/J
.	8c#/ 8e/	8e/L
.	8A/J)	8c#/J
4r	(8c#/ 8e/L	8.b\
.	8A/J)	.
.	.	16a\
=4	=4	=4
2DD/ 2D/	(8d/ 8f#/L	8a/L
.	8A/	8d/J
.	8d/ 8f#/	8f#/L
.	8A/J)	8d/J
4r	(8d/ 8f#/L	8.f#/
.	8A/J)	.
.	.	16g/
=5	=5	=5
2DD/ 2D/	(8d/ 8f#/L	4a/
.	8A/	.
.	8d/ 8f#/	4ff#\
.	8A/J)	.
4r	(8d/ 8g/L	8.ee\
.	8B/J)	.
.	.	16dd\
=6	=6	=6
2DD/ 2D/	(8d/ 8f#/L	8dd/L
.	8A/	8d/J
.	8d/ 8f#/	8f#/L
.	8A/J)	8d/J
4r	(8d/ 8f#/L	8.b/
.	8A/J)	.
.	.	16a/
=7	=7	=7
2AAA/ 2AA/	(8c#/ 8e/L	8a/L
.	8A/	8c#/J
.	8c#/ 8e/	8e/L
.	8A/J)	8c#/J
4r	(8c#/ 8g/L	8.b/L
.	8A/J)	.
.	.	16a/Jk
=8	=8	=8
2DD/ 2D/	(8d/ 8f#/L	4d/
.	8A/	.
.	8d/) 8f#/J	8r
.	8r	8d/L
4r	4r	8.b/
*	*clefF4	*
.	.	16a/Jk
=9	=9	=9
2AA/	8r	8a/L
.	(8A\L	8c#/J
.	8G\ 8c#\	8e/
.	8A\	8c#/L
4AA/	8G\ 8c#\	8.b/
.	8A\J)	.
.	.	16a/Jk
=10	=10	=10
2D\	8r	8a/L
.	(8A\L	8d/J
.	8F#\ 8d\	8f#/
.	8A\	8d/L
4D\	8F#\ 8d\	8.b/
.	8A\J)	.
.	.	16a/Jk
=11	=11	=11
2AA/	8r	8a/L
.	(8A\L	8c#/J
.	8G\ 8c#\	8e/
.	8A\	8c#/L
4AA/	8G\ 8c#\	8.b/
.	8A\J)	.
.	.	16a/Jk
=12	=12	=12
2D;\	(8F#\L	8a\L
.	8A\J	8dd\J
.	4d;\ 4f#;\)	4a;/
4r	4r	8.f#/
*	*clefG2	*
.	.	16g/
=13	=13	=13
2DD/ 2D/	(8d/ 8f#/L	4a/
.	8A/	.
.	8d/ 8f#/	4ff#\
.	8A/J)	.
4r	(8d/ 8g/L	8.ee\
.	8B/J)	.
.	.	16dd\
=14	=14	=14
2DD/ 2D/	(8d/ 8f#/L	8dd/L
.	8A/	8d/J
.	8d/ 8f#/	8f#/L
.	8A/J)	8d/J
4r	(8d/ 8f#/L	8.b/
.	8A/J)	.
.	.	16a/
=15	=15	=15
2AAA/ 2AA/	(8c#/ 8e/L	(8a/
.	8A/	4gg\)
.	8c#/ 8e/	.
.	8A/J)	8a/
4AAA/ 4AA/	(8e/ 8g/L	8.b\
.	8A/J)	.
.	.	16cc#\
=16	=16	=16
4DD/ 4D/	[4A/ [4d/ [4f#/	4dd\
8DDD;/ 8DD;/	8A;/] 8d;/] 8f#;/]	8r;
==	==	==
*-	*-	*-
!!!ENC: Craig Stuart Sapp
!!!END: 2004/05/26/
!!!EFL: 031/651
